X:111
T:Hop, Skip, Jump! #3
R:slide
C:Maire Breathnach
S:Sharon Shannon, Maire Breatnach, Mary Custy, Siobhan Peoples on Youtube
Z:id:hn-slide-111
M:6/8
L:1/8
K:E
B2c efg | b2g f2a | g2f efg | f2e c2e |
B2c efg | b2g f2a | gfe fec |1 e3 edc :|2 e3 efg ||
|: f2B b2a | gfe B2e | c2e B2e | A2e GBe |
f2B b2a | gfe B2e | cBG B2G |1 E3 efg :|2 E3 E3 ||

